X:1
T:Belfast, CMD
T:Belfast, CMD
T:John Hart Stockton, 1875
T:Public Domain Courtesy of the Cyber Hymnal™
C:John Hart Stockton, 1875
Z:Public Domain
Z:Courtesy of the Cyber Hymnal™
%%score ( 1 2 ) ( 3 4 )
L:1/8
Q:1/4=107
M:4/4
K:Eb
V:1 treble 
V:2 treble 
V:3 bass 
V:4 bass 
V:1
 E2 | E3 [EF] [EG]2 [EB]2 | [Ec]2 [Ee]2 [EB]2 [EG]2 | E3 [DF] [EG]2 [EB]2 | %4
 ([DF]3 [CE] [DF]2) (GF) | E3 [EF] [EG]2 [EB]2 | [Ec]2 [Ee]2 [EB]2 ([EG][FA]) | %7
 [GB]3 [EG] [DF]2 (GF) | E6 [GB]2 | [Ge]3 [Bd] [Ac]3 [GB] | [Ac]2 [GB]2 [EG]3 [GB] | %11
 [Ge]3 [EG] (GF) E2 | ([DF]3 [EG] !fermata![DB]2) (EF) | [EG]2 [EB]2 [Ge]3 [Ed] | %14
 (dc) [Ee]2 [EB]3 [EG] | [EB]3 [EG] (BA) [DF]2 | E6 |] %17
V:2
 E2 | E3 x5 | x8 | E3 x5 | x6 D2 | E3 x5 | x8 | x6 D2 | E6 x2 | x8 | x8 | x4 E2 E2 | x6 E2 | x8 | %14
 E2 x6 | x4 D2 x2 | E6 |] %17
V:3
 [E,G,]2 | [E,G,]3 [E,A,] [E,B,]2 [E,G,]2 | [A,,A,]2 [C,A,]2 [E,G,]2 [E,B,]2 | %3
 [G,B,]3 [F,B,] [E,B,]2 [G,,B,]2 | [B,,B,]6 (B,A,) | [E,G,]3 [E,A,] [E,B,]2 [E,G,]2 | %6
 [A,,A,]2 [C,A,]2 [E,G,]2 [E,B,]2 | [E,B,]3 [E,B,] [B,,B,]2 (B,A,) | [E,G,]6 [E,B,]2 | %9
 [E,B,]3 [E,B,] [E,E]3 [E,E] | [E,E]2 [E,E]2 [E,B,]3 [E,B,] | [E,B,]3 [E,B,] (B,A,) [E,G,]2 | %12
 (B,3 G, !fermata!F,2) G,A, | [E,B,]2 [E,G,]2 [E,B,]3 [G,B,] | A,2 [C,A,]2 [E,G,]3 [E,B,] | %15
 [E,G,]3 [E,G,] [B,,F,]2 [B,,A,]2 | [E,G,]6 |] %17
V:4
 x2 | x8 | x8 | x8 | x6 B,,2 | x8 | x8 | x6 B,,2 | x8 | x8 | x8 | x4 E,2 x2 | B,,6 E,2 | x8 | %14
 A,2 x6 | x8 | x6 |] %17

